uploads/2019/01/11/values_02.svg

<svg height="60" viewBox="0 0 60 60" width="60" xmlns="http://www.w3.org/2000/svg"><g fill="#04de47" fill-rule="evenodd" transform="translate(11 5)"><path d="m19 2.9056c-.3426.3762-.7438.83-1.1724 1.3272 3.594 4.5154 8.1724 11.493 8.1724 17.7672 0 11.7446-6.3884 18-11 18-.3035728-.001241-.6065286-.0274629-.9058-.0784 1.3462302 1.2384665 3.0796045 1.9728309 4.9058 2.0784 4.6116 0 11-6.2554 11-18 0-8.1614-7.7544-17.5308-11-21.0944z" opacity=".15"/><path d="m19 20c-2.7614237 0-5 2.2385763-5 5s2.2385763 5 5 5 5-2.2385763 5-5-2.2385763-5-5-5zm0 8c-1.6568542 0-3-1.3431458-3-3s1.3431458-3 3-3 3 1.3431458 3 3c-.0018737 1.6560775-1.3439225 2.9981263-3 3z" fill-rule="nonzero"/><circle cx="19" cy="13" r="1"/><path d="m31.8572 21.9234c-1.4008-10.6846-12.8572-21.9234-12.8572-21.9234s-11.4564 11.2388-12.8572 21.9234c-2.4028 2.5466-6.1428 6.7352-6.1428 8.0766 0 2.5 2.5834 20 4 20 1.1878-1.1878 1.329-9.7656 6.0584-11.625.5761075.8221083 1.2259997 1.5899558 1.9416 2.294v5.331c0 1.1045695.8954305 2 2 2h2.1836c.4180155 1.1977265 1.5478238 2.0000554 2.8164 2.0000554s2.3983845-.8023289 2.8164-2.0000554h2.1836c1.1045695 0 2-.8954305 2-2v-5.331c.7156003-.7040442 1.3654925-1.4718917 1.9416-2.294 4.7294 1.8594 4.8706 10.4372 6.0584 11.625 1.4168 0 4-17.5 4-20 0-1.3414-3.74-5.53-6.1428-8.0766zm-27.9068 21.4154c-.87639199-4.35837-1.52652898-8.7591946-1.9478-13.1848 1.14263132-1.8722814 2.49562069-3.6077555 4.0326-5.1726.03449467 4.0687824 1.04375573 8.0700265 2.9432 11.6684-2.5249474 1.4428957-4.34372386 3.8625051-5.028 6.689zm10.0496 2.6612v-3.701c.6286524.422966 1.2987828.7807486 2 1.0678v2.6332zm5 2c-.5520106-.0006612-.9993388-.4479894-1-1v-3.0764c.6627738.1018871 1.3372262.1018871 2 0v3.0764c-.0006612.5520106-.4479894.9993388-1 1zm5-2h-2v-2.6334c.7012172-.2870514 1.3713476-.644834 2-1.0678zm-5-4c-4.6116 0-11-6.2554-11-18 0-8.1614 7.7544-17.5308 11-21.0944 3.2456 3.5636 11 12.933 11 21.0944 0 11.7446-6.3884 18-11 18zm15.0496 1.3388c-.6842761-2.8264949-2.5030526-5.2461043-5.028-6.689 1.8994443-3.5983735 2.9087053-7.5996176 2.9432-11.6684 1.5369398 1.5648792 2.8899255 3.3003485 4.0326 5.1726-.421271 4.4256054-1.071408 8.82643-1.9478 13.1848z" fill-rule="nonzero"/></g></svg>

<?xml version="1.0" encoding="UTF-8"?>
<svg width="60px" height="60px" viewBox="0 0 60 60" version="1.1" xmlns="http://www.w3.org/2000/svg" xmlns:xlink="http://www.w3.org/1999/xlink">
    <!-- Generator: Sketch 52.4 (67378) - http://www.bohemiancoding.com/sketch -->
    <title>assets/homepage/values_06</title>
    <desc>Created with Sketch.</desc>
    <g id="Page-1" stroke="none" stroke-width="1" fill="none" fill-rule="evenodd">
        <g id="Wunder-Careers-04-Cultures-Mobile" transform="translate(-158.000000, -1051.000000)" fill="#04DE47">
            <g id="Wunder-Values" transform="translate(20.000000, 668.000000)">
                <g id="Group-10-Copy-9" transform="translate(0.000000, 321.000000)">
                    <g id="Speed" transform="translate(111.000000, 62.000000)">
                        <g id="Group-28" transform="translate(27.000000, 0.000000)">
                            <g id="rocket" transform="translate(11.000000, 5.000000)">
                                <path d="M19,2.9056 C18.6574,3.2818 18.2562,3.7356 17.8276,4.2328 C21.4216,8.7482 26,15.7258 26,22 C26,33.7446 19.6116,40 15,40 C14.6964272,39.998759 14.3934714,39.9725371 14.0942,39.9216 C15.4404302,41.1600665 17.1738045,41.8944309 19,42 C23.6116,42 30,35.7446 30,24 C30,15.8386 22.2456,6.4692 19,2.9056 Z" id="Path" opacity="0.149999991"></path>
                                <path d="M19,20 C16.2385763,20 14,22.2385763 14,25 C14,27.7614237 16.2385763,30 19,30 C21.7614237,30 24,27.7614237 24,25 C24,22.2385763 21.7614237,20 19,20 Z M19,28 C17.3431458,28 16,26.6568542 16,25 C16,23.3431458 17.3431458,22 19,22 C20.6568542,22 22,23.3431458 22,25 C21.9981263,26.6560775 20.6560775,27.9981263 19,28 Z" id="Shape" fill-rule="nonzero"></path>
                                <circle id="Oval" cx="19" cy="13" r="1"></circle>
                                <path d="M31.8572,21.9234 C30.4564,11.2388 19,0 19,0 C19,0 7.5436,11.2388 6.1428,21.9234 C3.74,24.47 0,28.6586 0,30 C0,32.5 2.5834,50 4,50 C5.1878,48.8122 5.329,40.2344 10.0584,38.375 C10.6345075,39.1971083 11.2843997,39.9649558 12,40.669 L12,46 C12,47.1045695 12.8954305,48 14,48 L16.1836,48 C16.6016155,49.1977265 17.7314238,50.0000554 19,50.0000554 C20.2685762,50.0000554 21.3983845,49.1977265 21.8164,48 L24,48 C25.1045695,48 26,47.1045695 26,46 L26,40.669 C26.7156003,39.9649558 27.3654925,39.1971083 27.9416,38.375 C32.671,40.2344 32.8122,48.8122 34,50 C35.4168,50 38,32.5 38,30 C38,28.6586 34.26,24.47 31.8572,21.9234 Z M3.9504,43.3388 C3.07400801,38.98043 2.42387102,34.5796054 2.0026,30.154 C3.14523132,28.2817186 4.49822069,26.5462445 6.0352,24.9814 C6.06969467,29.0501824 7.07895573,33.0514265 8.9784,36.6498 C6.4534526,38.0926957 4.63467614,40.5123051 3.9504,43.3388 Z M14,46 L14,42.299 C14.6286524,42.721966 15.2987828,43.0797486 16,43.3668 L16,46 L14,46 Z M19,48 C18.4479894,47.9993388 18.0006612,47.5520106 18,47 L18,43.9236 C18.6627738,44.0254871 19.3372262,44.0254871 20,43.9236 L20,47 C19.9993388,47.5520106 19.5520106,47.9993388 19,48 Z M24,46 L22,46 L22,43.3666 C22.7012172,43.0795486 23.3713476,42.721766 24,42.2988 L24,46 Z M19,42 C14.3884,42 8,35.7446 8,24 C8,15.8386 15.7544,6.4692 19,2.9056 C22.2456,6.4692 30,15.8386 30,24 C30,35.7446 23.6116,42 19,42 Z M34.0496,43.3388 C33.3653239,40.5123051 31.5465474,38.0926957 29.0216,36.6498 C30.9210443,33.0514265 31.9303053,29.0501824 31.9648,24.9814 C33.5017398,26.5462792 34.8547255,28.2817485 35.9974,30.154 C35.576129,34.5796054 34.925992,38.98043 34.0496,43.3388 Z" id="Shape" fill-rule="nonzero"></path>
                            </g>
                        </g>
                    </g>
                </g>
            </g>
        </g>
    </g>
</svg>
